symbols/web/shuffle/materialsymbolsoutlined/shuffle_wght700gradN25fill1_40px.svg

<svg xmlns="http://www.w3.org/2000/svg" height="40" width="40"><path d="M15.792 18.292 5.833 8.333l2.625-2.625 10 9.959Zm7.791 15.75v-3.667h4.25l-6.125-6.083 2.584-2.667L30.5 27.75v-4.292h3.708v10.584Zm-15.166.208-2.584-2.625L27.875 9.583h-4.292V5.917h10.625V16.5H30.5v-4.25Z"/></svg>

<svg xmlns="http://www.w3.org/2000/svg" height="40" width="40"><path d="M15.792 18.292 5.833 8.333 8.458 5.708 18.458 15.667ZM23.583 34.042V30.375H27.833L21.708 24.292L24.292 21.625L30.5 27.75V23.458H34.208V34.042ZM8.417 34.25 5.833 31.625 27.875 9.583H23.583V5.917H34.208V16.5H30.5V12.25Z"/></svg>
